usr/share/icons/biglinux-icons-material/scalable/mimetypes/x-media-podcast.svg

<svg width="24" height="24" viewBox="0 0 24 24" fill="none" xmlns="http://www.w3.org/2000/svg">
<rect x="1" y="1" width="22" height="22" rx="6.6" fill="url(#paint0_radial_1_305)"/>
<path opacity="0.75" d="M12.2739 4C10.1634 4 8.46438 5.69905 8.46438 7.80952V11.619C8.46438 13.7295 10.1634 15.4286 12.2739 15.4286C14.3844 15.4286 16.0834 13.7295 16.0834 11.619V7.80952C16.0834 5.69905 14.3844 4 12.2739 4ZM9.22629 7.04762H11.512V7.80952H9.22629V7.04762ZM13.0358 7.04762H15.3215V7.80952H13.0358V7.04762ZM9.22629 9.33333H11.512V10.0952H9.22629V9.33333ZM13.0358 9.33333H15.3215V10.0952H13.0358V9.33333ZM9.22629 11.619H11.512V12.381H9.22629V11.619ZM13.0358 11.619H15.3215V12.381H13.0358V11.619ZM7 12.381C7.33295 14.7215 9.17219 16.56 11.512 16.893V17.7143H11.893V19.2381H10.7501V20H13.7977V19.2381H12.6549V17.7143H13.0358V16.893C15.3756 16.56 17.2149 14.7215 17.5478 12.381H16.7768C16.4156 14.5478 14.5459 16.1905 12.2739 16.1905C10.0019 16.1905 8.13219 14.5478 7.77105 12.381H7Z" fill="white"/>
<defs>
<radialGradient id="paint0_radial_1_305" cx="0" cy="0" r="1" gradientUnits="userSpaceOnUse" gradientTransform="translate(17.5 1) rotate(116.565) scale(24.5967)">
<stop stop-color="#B489C6"/>
<stop offset="1" stop-color="#814599"/>
</radialGradient>
</defs>
</svg>

<svg xmlns="http://www.w3.org/2000/svg" width="24" height="24" fill="none"><rect width="22" height="22" x="1" y="1" fill="url(#a)" rx="6.6"/><path fill="#fff" d="M12.274 4a3.801 3.801 0 0 0-3.81 3.81v3.809c0 2.11 1.7 3.81 3.81 3.81 2.11 0 3.81-1.7 3.81-3.81v-3.81c0-2.11-1.7-3.809-3.81-3.809ZM9.226 7.048h2.286v.762H9.226v-.762Zm3.81 0h2.286v.762h-2.286v-.762Zm-3.81 2.285h2.286v.762H9.226v-.762Zm3.81 0h2.286v.762h-2.286v-.762Zm-3.81 2.286h2.286v.762H9.226v-.762Zm3.81 0h2.286v.762h-2.286v-.762ZM7 12.381a5.314 5.314 0 0 0 4.512 4.512v.821h.381v1.524H10.75V20h3.048v-.762h-1.143v-1.524h.38v-.821a5.313 5.313 0 0 0 4.513-4.512h-.771a4.556 4.556 0 0 1-4.503 3.81 4.556 4.556 0 0 1-4.503-3.81H7Z" opacity=".75"/><defs><radialGradient id="a" cx="0" cy="0" r="1" gradientTransform="rotate(116.565 8.441 5.908) scale(24.5967)" gradientUnits="userSpaceOnUse"><stop stop-color="#B489C6"/><stop offset="1" stop-color="#814599"/></radialGradient></defs></svg>
